Newaita-dark/actions/24/draw-triangle3.svg

<svg height="24" viewBox="0 0 24 24" width="24" xmlns="http://www.w3.org/2000/svg"><path d="m11.859375 4.164062c-.335937.015626-.640625.203126-.808594.496094l-7.9375 13.890625c-.175781.304688-.175781.679688 0 .984375.179688.304688.503907.492188.855469.492188h15.875c.355469 0 .679688-.1875.855469-.492188.175781-.304687.179687-.679687.003906-.984375l-7.9375-13.890625c-.183594-.324218-.535156-.515625-.90625-.496094zm.046875 2.976563 6.238281 10.914063h-12.472656zm0 0" fill="#e0e0e0"/></svg>

<svg xmlns="http://www.w3.org/2000/svg" xmlns:xlink="http://www.w3.org/1999/xlink" width="24px" height="24px" viewBox="0 0 24 24" version="1.1">
<g id="surface1">
     <defs>
  <style id="current-color-scheme" type="text/css">
   .ColorScheme-Text { color:#eeeeee; } .ColorScheme-Highlight { color:#424242; }
  </style>
 </defs>
<path style="fill:currentColor" class="ColorScheme-Text" d="M 11.859375 4.164062 C 11.523438 4.179688 11.21875 4.367188 11.050781 4.660156 L 3.113281 18.550781 C 2.9375 18.855469 2.9375 19.230469 3.113281 19.535156 C 3.292969 19.839844 3.617188 20.027344 3.96875 20.027344 L 19.84375 20.027344 C 20.199219 20.027344 20.523438 19.839844 20.699219 19.535156 C 20.875 19.230469 20.878906 18.855469 20.703125 18.550781 L 12.765625 4.660156 C 12.582031 4.335938 12.230469 4.144531 11.859375 4.164062 Z M 11.90625 7.140625 L 18.144531 18.054688 L 5.671875 18.054688 Z M 11.90625 7.140625 "/>
</g>
</svg>
